X: 1
T: Last Chance
R: march
S: Fiddle Hell Online 2022-3-26 handout for Fiddle Hell jam session
B: the Portland Collection 2 p.115
Z: 2022 John Chambers <jc:trillian.mit.edu>
M: C|
L: 1/8
K: D
|:\
"D"d4 dBAB | d2d2 B2d2 | "A"e3f e2f2- | fefe dBAB ||\
"D"d4 dBAB | d2d2 B2A2 | F4 FED2 | "Bm"[D3B,3][DC] [D4B,4] :|
|:\
"D"F4 FEDF | B2A2 FEDF | B2A2 FED2 | "Bm"[D3B,3][DC] [D4B,4] ||\
"D"F2F2 FEDF | B2A2 FED2 | "Bm"[D4B,4] [D3B,3][DB,] | [D2B,2][D2-B,2-] [D2B,2] [1 DE :|2 A2 |]
